X:2
I:linebreak $
T:Corwyn's Folly
T:Around the House and Mind the Dresser
C:Traditional
M:12/8
L:1/8
K:D major
g | "D"f2d A2=c "G"B2A G2g | "D"f2d "A"AB=c "D"d3 d2"G"g | "D"f2d A2=c "G"B2A G3 | "D"fag "A7"fB=c "D"d3 d2 :: 
a | "D"f2g agf "Em"e2f gfe | "D"f2g agf "A7"e3 g3 | "D"f2g agf "Em"e2f "G"g2a | "Em"ggf "A7"eAB "D"=cd3d2 :| 

% Output from ABC2Win  Version 2.1  on 2/11/98
